static/files/images/bk-404.svg

<?xml version="1.0" encoding="UTF-8"?>
<svg version="1.1" viewBox="0 0 1280 800" xmlns="http://www.w3.org/2000/svg" xmlns:xlink="http://www.w3.org/1999/xlink">
<g transform="translate(-8582 512)">
<clipPath id="e" clip-rule="evenodd">
<path d="m8582-512h1280v800h-1280v-800z" fill="#fff"/>
</clipPath>
<g clip-path="url(#e)">
<path d="m8582-512h1280v800h-1280v-800z" fill="#fff"/>
<use transform="translate(8582 -512)" fill="url(#d)" xlink:href="#c"/>
<use transform="translate(8472 -105)" fill="#3849D6" fill-opacity=".5" xlink:href="#b"/>
<use transform="translate(8653 -233)" fill="#FFFFFF" fill-opacity=".05" xlink:href="#a"/>
</g>
</g>
<defs>
<linearGradient id="d" x2="1" gradientTransform="matrix(1280 800 -1280 2048 640 -1024)" gradientUnits="userSpaceOnUse">
<stop stop-color="#495CF2" offset="0"/>
<stop stop-color="#2438D6" stop-opacity=".9" offset="1"/>
</linearGradient>
<path id="c" d="m0 0h1280v800h-1280v-800z"/>
<path id="b" d="m341.08 170.5c0 94.165-76.353 170.5-170.54 170.5-94.187 0-170.54-76.335-170.54-170.5 0-94.165 76.354-170.5 170.54-170.5 94.188 0 170.54 76.335 170.54 170.5z"/>
<path id="a" d="M 301 150.5C 301 233.619 233.619 301 150.5 301C 67.3811 301 0 233.619 0 150.5C 0 67.3811 67.3811 0 150.5 0C 233.619 0 301 67.3811 301 150.5Z"/>
</defs>
</svg>

<svg width="1920" height="1200" viewBox="0 0 1920 1200" version="1.1" xmlns="http://www.w3.org/2000/svg" xmlns:xlink="http://www.w3.org/1999/xlink">
<title>404</title>
<desc>Created using Figma</desc>
<g id="Canvas" transform="matrix(1.5 0 0 1.5 -13335 -312)">
<clipPath id="clip-0" clip-rule="evenodd">
<path d="M 8890 208L 10170 208L 10170 1008L 8890 1008L 8890 208Z" fill="#FFFFFF"/>
</clipPath>
<g id="404" clip-path="url(#clip-0)">
<path d="M 8890 208L 10170 208L 10170 1008L 8890 1008L 8890 208Z" fill="#FFFFFF"/>
<g id="Rectangle">
<use xlink:href="#path0_fill" transform="translate(8890 208)" fill="url(#paint0_linear)"/>
</g>
<g id="Group">
<g id="Ellipse 2">
<use xlink:href="#path1_fill" transform="translate(8780 615)" fill="#3849D6" fill-opacity="0.5"/>
</g>
<g id="Ellipse 2">
<use xlink:href="#path2_fill" transform="translate(8961 487)" fill="#FFFFFF" fill-opacity="0.05"/>
</g>
</g>
</g>
</g>
<defs>
<linearGradient id="paint0_linear" x1="0" y1="0" x2="1" y2="0" gradientUnits="userSpaceOnUse" gradientTransform="matrix(1280 800 -1280 2048 640 -1024)">
<stop offset="0" stop-color="#495CF2"/>
<stop offset="1" stop-color="#2438D6" stop-opacity="0.9"/>
</linearGradient>
<path id="path0_fill" d="M 0 0L 1280 0L 1280 800L 0 800L 0 0Z"/>
<path id="path1_fill" d="M 341.082 170.5C 341.082 264.665 264.729 341 170.541 341C 76.3539 341 0 264.665 0 170.5C 0 76.3354 76.3539 0 170.541 0C 264.729 0 341.082 76.3354 341.082 170.5Z"/>
<path id="path2_fill" d="M 301 150.5C 301 233.619 233.619 301 150.5 301C 67.3811 301 0 233.619 0 150.5C 0 67.3811 67.3811 0 150.5 0C 233.619 0 301 67.3811 301 150.5Z"/>
</defs>
</svg>
